!!!COM: Bach, Johann Sebastian
!!!CDT: 1685/3//-1750/7/28/
!!!OTL@@DE: Jesus Christus, unser Heiland
!!!AGN: 4-Part Chorale
!!!SCT: BH 030
!!!SCT: BWV 363
**harm	**root	**kern	**kern	**kern	**kern
!	!	!bass	!tenor	!alto	!soprno
*	*Iorgan	*Iorgan	*Iorgan	*Iorgan	*Iorgan
*M4/4	*M4/4	*M4/4	*M4/4	*M4/4	*M4/4
*met(c)	*met(c)	*met(c)	*met(c)	*met(c)	*met(c)
*MM60	*MM60	*MM60	*MM60	*MM60	*MM60
*k[f#c#g#d#a#e#b#]	*k[f#c#g#d#a#e#b#]	*k[f#c#g#d#a#e#b#]	*k[f#c#g#d#a#e#b#]	*k[f#c#g#d#a#e#b#]	*k[f#c#g#d#a#e#b#]
*a#:	*a#:	*a#:	*a#:	*a#:	*a#:
=1-	=1-	=1-	=1-	=1-	=1-
i	4EE	4.A#	4c#	4e#	4a#
vb	4BB	.	4B#	4e#	4ee#
.	.	8G#	.	.	.
VI7	4CC	2F#	4c#	8a#	4ee#
.	.	.	.	8g##	.
ivb	4AA	.	8B#	4a#	4dd#
.	.	.	8A#	.	.
=2	=2	=2	=2	=2	=2
V	4BB	8E#	4B#	4g##	4ee#
.	.	8d#	.	.	.
ib	8EE	8c#	8e#	8a#	8a#
-VIIb	8DD#	8B#	8d#	8g##	8b#
i	4EE	8A#	4e#	4a#	4cc#
.	.	8G#	.	.	.
VI	4CC	8F#	8a#	4a#	4cc#
.	.	8E#	8g##	.	.
=3	=3	=3	=3	=3	=3
viioD7/V	4AA#	4D##	4f##	4.a#	4cc#
V7	4BB	4E#	8B#	.	4b#
.	.	.	16e#	8g##	.
.	.	.	16d#	.	.
i;	2EE;	2AA#;	2c#;	2e#;	2a#;
=4	=4	=4	=4	=4	=4
i	4EE	8A#	4e#	4a#	4cc#
.	.	8G#	.	.	.
VI	4CC	4F#	4f#	4a#	4cc#
IIIb	4GG	4E#	4c#	4g#	4cc#
VI	4CC	4F#	4c#	4f#	4a#
=5	=5	=5	=5	=5	=5
IIIb	4GG	8F#	8c#	4g#	4cc#
.	.	8E#	16d#	.	.
.	.	.	16e#	.	.
IV	4AA	4D#	4f#	8a#	4dd#
.	.	.	.	8b#	.
III	4GG	4C#	8g#	4.cc#	4ee#
.	.	.	16a#	.	.
.	.	.	16g#	.	.
iib	4FF#	4D#	16f#	.	4dd#
.	.	.	16e#	.	.
.	.	.	8f#	[8b#	.
=6	=6	=6	=6	=6	=6
ic	4EE	2E#	4e#	8b#]	4cc#
.	.	.	.	4a#	.
V	4BB	.	8.e#	.	4b#
.	.	.	.	8g##	.
.	.	.	16d#	.	.
i;	2EE;	2A#;	2c#;	2e#;	2a#;
!!linebreak: 2
=7	=7	=7	=7	=7	=7
i	4EE	4A#	8e#	4a#	4cc#
.	.	.	8f#	.	.
IIIb	4GG	4E#	4g#	8cc#	4cc#
.	.	.	.	8b#	.
VI	4CC	8F#	4f#	4a#	4cc#
.	.	8G#	.	.	.
VIb	4CC	8A#	4c#	4f#	4a#
.	.	8G#	.	.	.
=8	=8	=8	=8	=8	=8
VI	4CC	8F#	4c#	8a#	4cc#
.	.	8E#	.	8g#	.
IV	4AA	4D#	4f#	8a#	4dd#
.	.	.	.	8b#	.
III	4GG	4C#	[4g#	4.cc#	4ee#
-VII	4DD	4G#	8.g#]	.	4dd#
.	.	.	.	8b#	.
.	.	.	16f#	.	.
=9	=9	=9	=9	=9	=9
III;	2GG;	2C#;	2e#;	2g#;	2cc#;
r	4r	4r	4r	4r	4r
IIIb	4GG	4E#	4g#	8cc#	4gg#
.	.	.	.	8b	.
=10	=10	=10	=10	=10	=10
VI	4CC	4F#	8f#	4a#	4aa#
.	.	.	8e#	.	.
-VII	4DD	4G#	4d#	4b#y	8gg#
.	.	.	.	.	8ff#
i	8EE	4.A#	8c#	8cc#	8ee#
viioD7	8DD#	.	8f#	8g##	8dd#
i	8EE	.	8e#	8a#	8cc#
-VIIb	8DD	8B#	8d#	[8g#	8dd#
=11	=11	=11	=11	=11	=11
III	8GG	8c#	8c#	8g#]	4ee#
IIIb	8GG	8E#	8g#	4cc#	.
V7b/-VII	8AA	8F##	8a#	.	4dd#
V7b	8BB	8G##	8e#	4b#	.
i	4EE	8A#	4e#	.	4cc#
.	.	8C#	.	4a#	.
viiD7/III	8FF#	8D#	8f#	.	4b#
V	8BB	8E#	16e#	8g##	.
.	.	.	16d#	.	.
=12	=12	=12	=12	=12	=12
I;	2.EE;	2.AA#;	2.c##;	2.e#;	2.a#;
==	==	==	==	==	==
*-	*-	*-	*-	*-	*-
!!chor2scor: -l 2 -s 0.6 -o %b.pmx
!!!YEC: Copyright 1994, David Huron
!!!YEC: Changes/Additions 2001 by Craig Stuart Sapp
!!!YEN: United States of America
!!!SMA: 371 Bach Chorales, edited by Ludwig Erk, C.F. Peters
!!!PDT: 1850, 1865
!!!ONB: Harmony and Root analysis done manually
